apps/explorer/src/assets/img/carret-down.svg

<svg fill="none" height="6" viewBox="0 0 10 6" width="10" xmlns="http://www.w3.org/2000/svg"><path clip-rule="evenodd" d="m.46967.46967c.292893-.292893.76777-.292893 1.06066 0l3.46967 3.46967 3.46967-3.46967c.29289-.292893.76777-.292893 1.06066 0s.29289.76777 0 1.06066l-4 4c-.29289.29289-.76777.29289-1.06066 0l-4-4c-.292893-.29289-.292893-.767767 0-1.06066z" fill="#000" fill-rule="evenodd"/></svg>

<svg width="10" height="6" viewBox="0 0 10 6" fill="none" xmlns="http://www.w3.org/2000/svg">
<path fill-rule="evenodd" clip-rule="evenodd" d="M0.46967 0.46967C0.762563 0.176777 1.23744 0.176777 1.53033 0.46967L5 3.93934L8.46967 0.46967C8.76256 0.176777 9.23744 0.176777 9.53033 0.46967C9.82322 0.762563 9.82322 1.23744 9.53033 1.53033L5.53033 5.53033C5.23744 5.82322 4.76256 5.82322 4.46967 5.53033L0.46967 1.53033C0.176777 1.23744 0.176777 0.762563 0.46967 0.46967Z" fill="#000000"/>
</svg>
